ui_kit/lib/assets/icons/preview_state_off.svg

<svg width="24" height="24" viewBox="0 0 24 24" fill="none" xmlns="http://www.w3.org/2000/svg">
<path fill-rule="evenodd" clip-rule="evenodd" d="M4.28033 3.21967C3.98744 2.92678 3.51256 2.92678 3.21967 3.21967C2.92678 3.51256 2.92678 3.98744 3.21967 4.28033L6.4264 7.48706C5.0698 8.6548 3.93778 10.0639 3.08913 11.6455C2.97391 11.8602 2.9702 12.1175 3.07918 12.3355L3.75 12.0001C3.07918 12.3355 3.07978 12.3367 3.07978 12.3367L3.08065 12.3384L3.08324 12.3436L3.09175 12.3602C3.09891 12.3741 3.10902 12.3936 3.12207 12.4183C3.14816 12.4676 3.18602 12.5377 3.23548 12.6256C3.33434 12.8014 3.47989 13.049 3.67075 13.3445C4.05155 13.9341 4.61763 14.7221 5.3591 15.513C6.82836 17.0803 9.07537 18.7501 12 18.7501L12.0123 18.75C13.5636 18.7246 15.0722 18.2652 16.3696 17.4303L19.7197 20.7803C20.0126 21.0732 20.4874 21.0732 20.7803 20.7803C21.0732 20.4874 21.0732 20.0126 20.7803 19.7197L4.28033 3.21967ZM11.9981 6.75002C11.5261 6.74891 11.0555 6.80269 10.5958 6.91028C10.1925 7.00468 9.78903 6.75427 9.69462 6.35095C9.60022 5.94764 9.85064 5.54416 10.2539 5.44976C10.8265 5.31574 11.4127 5.24871 12.0007 5.25002C14.925 5.25035 17.1717 6.92 18.6408 8.48706C19.3823 9.27797 19.9483 10.066 20.3291 10.6556C20.52 10.9512 20.6655 11.1987 20.7644 11.3745L20.9207 11.6646C21.0295 11.8822 21.026 12.139 20.9113 12.3536C20.4314 13.2513 19.8591 14.0965 19.2037 14.8754C18.9371 15.1923 18.4639 15.2331 18.147 14.9664C17.8301 14.6997 17.7893 14.2266 18.056 13.9096C18.5578 13.3133 19.0053 12.6736 19.3934 11.9983C19.3115 11.8569 19.2032 11.677 19.0691 11.4694C18.7233 10.934 18.2113 10.2221 17.5465 9.51297C16.2032 8.08019 14.3253 6.75002 11.9999 6.75002L11.9981 6.75002ZM4.60693 12.0025C4.68874 12.1437 4.79694 12.3234 4.93081 12.5307C5.27658 13.0661 5.78862 13.778 6.4534 14.4871C7.79546 15.9187 9.67134 17.2478 11.9939 17.2501C13.153 17.2301 14.2828 16.9144 15.2786 16.3393L13.5373 14.5981C13.4182 14.6727 13.2938 14.739 13.1649 14.7965C12.7969 14.9605 12.3996 15.0486 11.9968 15.0557C11.594 15.0629 11.1939 14.9888 10.8203 14.8379C10.4468 14.687 10.1074 14.4624 9.82255 14.1775C9.53768 13.8927 9.3131 13.5533 9.16222 13.1798C9.01133 12.8062 8.93723 12.4061 8.94434 12.0033C8.95145 11.6005 9.03962 11.2032 9.20358 10.8352C9.26104 10.7063 9.32739 10.5818 9.40203 10.4628L7.49032 8.55107C6.33773 9.52612 5.36201 10.6937 4.60693 12.0025ZM10.5209 11.5817C10.4728 11.726 10.4468 11.8771 10.4441 12.0298C10.4406 12.2312 10.4776 12.4312 10.553 12.618C10.6285 12.8048 10.7408 12.9744 10.8832 13.1169C11.0257 13.2593 11.1953 13.3716 11.3821 13.447C11.5689 13.5225 11.7689 13.5595 11.9703 13.556C12.123 13.5533 12.2741 13.5273 12.4184 13.4792L10.5209 11.5817Z" fill="white"/>
</svg>

<svg xmlns="http://www.w3.org/2000/svg" width="24" height="24" fill="none" viewBox="0 0 24 24"><path fill="#fff" fill-rule="evenodd" d="M4.28 3.22a.75.75 0 0 0-1.06 1.06l3.206 3.207a14.587 14.587 0 0 0-3.337 4.159.75.75 0 0 0-.01.69L3.75 12c-.67.335-.67.337-.67.337v.001l.003.006.009.016a6.234 6.234 0 0 0 .143.266 15.508 15.508 0 0 0 2.124 2.887C6.83 17.08 9.075 18.75 12 18.75h.012a8.303 8.303 0 0 0 4.358-1.32l3.35 3.35a.75.75 0 1 0 1.06-1.06L4.28 3.22Zm7.718 3.53a6.09 6.09 0 0 0-1.402.16.75.75 0 0 1-.342-1.46A7.59 7.59 0 0 1 12 5.25c2.924 0 5.17 1.67 6.64 3.237a15.505 15.505 0 0 1 2.123 2.887l.157.29a.75.75 0 0 1-.01.69 14.629 14.629 0 0 1-1.707 2.521.75.75 0 1 1-1.148-.965c.502-.597.95-1.236 1.337-1.912a14.009 14.009 0 0 0-1.847-2.485C16.204 8.08 14.327 6.75 12 6.75h-.002Zm-7.391 5.252a14.006 14.006 0 0 0 1.846 2.485c1.342 1.432 3.218 2.76 5.54 2.763a6.803 6.803 0 0 0 3.286-.91l-1.742-1.742a3.016 3.016 0 0 1-1.54.458 2.998 2.998 0 0 1-2.595-4.593L7.49 8.55a13.087 13.087 0 0 0-2.883 3.451Zm5.914-.42a1.501 1.501 0 0 0 1.897 1.897l-1.897-1.897Z" clip-rule="evenodd"/></svg>
